**kern	**kern	**dynam
*part1	*part1	*part1
*staff2	*staff1	*
*I"Piano	*	*
*clefF4	*clefG2	*
*k[b-e-]	*k[b-e-]	*
=1	=1	=1
4A 4d 4f	12r	.
.	12ddL 12ff	.
.	12gJ	.
4A 4c#X 4en	12r	.
.	12cc#XL 12een	.
.	12aJ	.
=	=	=
4D 4A 4d	12r	.
.	12aL 12dd	.
.	12e-J	.
4d	12r	.
.	12aL 12dd	.
.	12fJ	.
=	=	=
(2G 2d-X	(2b- 2ee-X	pp
=	=	=
2A-X 2c-X	2a-X 2ee-	.
=	=	=
[2E-) [2B-	[2g) [2ee-	.
=	=	=
2E-] 2B-]	2g] 2ee-]	.
=	=	=
[2En [2B-	[2g [2dd-X	.
=	=	=
2E] 2B-]	2g] 2dd-]	.
=	=	=
([2F 2B-	([2f 2ddn	.
=	=	=
2F]) 2A	2e-) 2f] 2cc	.
=:|!	=:|!	=:|!
*-	*-	*-
!!!system-decoration: {(s1,s2)}
